src/actions/symbolic/caps-lock-off-symbolic.svg

<svg width="16" height="16" version="1.1" xmlns="http://www.w3.org/2000/svg">
 <path d="m12 0c-2.216 0-4 1.784-4 4v2h1v-2c0-1.662 1.338-3 3-3s3 1.338 3 3v2h1v-2c0-2.216-1.784-4-4-4z" fill="#363636"/>
 <path d="m2 6c-1.108 0-2 0.892-2 2v5c0 1.108 0.892 2 2 2h8c1.108 0 2-0.892 2-2v-5c0-1.108-0.892-2-2-2zm0 1h8c0.554 0 1 0.446 1 1v5c0 0.554-0.446 1-1 1h-8c-0.554 0-1-0.446-1-1v-5c0-0.554 0.446-1 1-1z" fill="#363636"/>
 <g transform="translate(0 -.1162)" aria-label="A">
  <path d="m5.9304 8.7826-0.91762 2.4883h1.8386zm-0.38178-0.66644h0.76691l1.9056 5h-0.70328l-0.45546-1.2827h-2.2539l-0.45546 1.2827h-0.71333z" fill="#363636"/>
 </g>
</svg>

<svg xmlns="http://www.w3.org/2000/svg" width="16" height="16">
    <path fill="#050505" fill-opacity=".7" d="M12 0C9.784 0 8 1.784 8 4v2h1V4c0-1.662 1.338-3 3-3s3 1.338 3 3v2h1V4c0-2.216-1.784-4-4-4zM2 6C.892 6 0 6.892 0 8v5c0 1.108.892 2 2 2h8c1.108 0 2-.892 2-2V8c0-1.108-.892-2-2-2zm0 1h8c.554 0 1 .446 1 1v5c0 .554-.446 1-1 1H2c-.554 0-1-.446-1-1V8c0-.554.446-1 1-1z"/>
    <path fill="#050505" fill-opacity=".7" d="m5.93 8.666-.917 2.489H6.85zM5.55 8h.767l1.905 5h-.703l-.456-1.283H4.808L4.353 13H3.64z" aria-label="A"/>
</svg>
